src/images/subscribe.svg

<svg width="332" height="50" viewBox="0 0 332 50" fill="none" xmlns="http://www.w3.org/2000/svg">
<rect width="332" height="50" rx="6" fill="white"/>
<path d="M282 0H326C329.314 0 332 2.68629 332 6V44C332 47.3137 329.314 50 326 50H282V0Z" fill="#FFCC29"/>
<path d="M282 0H326C329.314 0 332 2.68629 332 6V44C332 47.3137 329.314 50 326 50H282V0Z" stroke="#D6D6D6"/>
<path fill-rule="evenodd" clip-rule="evenodd" d="M309.233 32L314.89 26.4285C315.411 25.9152 315.411 25.0832 314.89 24.5715L309.233 19L307.348 20.8581L310.728 24.1867H300V26.8129H310.728L307.348 30.1427L309.233 32Z" fill="black"/>
<path d="M21.544 30.144C19.7307 30.144 18.3493 29.632 17.4 28.608C16.4507 27.584 15.976 26.1707 15.976 24.368C15.976 23.1733 16.1893 22.144 16.616 21.28C17.0427 20.416 17.656 19.7493 18.456 19.28C19.256 18.8107 20.2213 18.576 21.352 18.576C22.152 18.576 22.888 18.6987 23.56 18.944C24.232 19.1787 24.8027 19.5253 25.272 19.984L24.76 21.04C24.248 20.592 23.72 20.2667 23.176 20.064C22.632 19.8613 22.0187 19.76 21.336 19.76C20.056 19.76 19.0747 20.1653 18.392 20.976C17.7093 21.776 17.368 22.9067 17.368 24.368C17.368 25.8613 17.72 27.0027 18.424 27.792C19.128 28.5813 20.1787 28.976 21.576 28.976C22.4827 28.976 23.352 28.8213 24.184 28.512V25.168H21.32V24.128H25.32V29.344C25.0213 29.504 24.6587 29.6427 24.232 29.76C23.816 29.8773 23.3733 29.968 22.904 30.032C22.4347 30.1067 21.9813 30.144 21.544 30.144ZM31.3294 30.144C30.1027 30.144 29.132 29.7867 28.4174 29.072C27.7027 28.3467 27.3454 27.3653 27.3454 26.128C27.3454 25.328 27.5054 24.624 27.8254 24.016C28.1454 23.3973 28.5827 22.9227 29.1374 22.592C29.7027 22.2507 30.3534 22.08 31.0894 22.08C32.1454 22.08 32.972 22.4213 33.5694 23.104C34.1667 23.776 34.4654 24.704 34.4654 25.888V26.384H28.6094C28.652 27.2693 28.908 27.9467 29.3774 28.416C29.8467 28.8747 30.4974 29.104 31.3294 29.104C31.7987 29.104 32.2467 29.0347 32.6734 28.896C33.1 28.7467 33.5054 28.5067 33.8894 28.176L34.3374 29.088C33.9854 29.4187 33.5374 29.68 32.9934 29.872C32.4494 30.0533 31.8947 30.144 31.3294 30.144ZM31.1214 23.04C30.3854 23.04 29.804 23.2693 29.3774 23.728C28.9507 24.1867 28.7 24.7893 28.6254 25.536H33.3454C33.3134 24.7467 33.1054 24.1333 32.7214 23.696C32.348 23.2587 31.8147 23.04 31.1214 23.04ZM39.461 30.144C38.5437 30.144 37.8557 29.904 37.397 29.424C36.9383 28.9333 36.709 28.2293 36.709 27.312V23.232H35.189V22.224H36.709V19.84H38.005V22.224H40.469V23.232H38.005V27.184C38.005 27.792 38.133 28.256 38.389 28.576C38.645 28.8853 39.061 29.04 39.637 29.04C39.8077 29.04 39.9783 29.0187 40.149 28.976C40.3197 28.9333 40.4743 28.8907 40.613 28.848L40.837 29.84C40.6983 29.9147 40.4957 29.984 40.229 30.048C39.9623 30.112 39.7063 30.144 39.461 30.144ZM46.0441 32.88V22.224H47.3081V23.616C47.5428 23.136 47.8895 22.7627 48.3481 22.496C48.8175 22.2187 49.3615 22.08 49.9801 22.08C50.6735 22.08 51.2761 22.2453 51.7881 22.576C52.3108 22.896 52.7108 23.36 52.9881 23.968C53.2761 24.5653 53.4201 25.28 53.4201 26.112C53.4201 26.9333 53.2761 27.648 52.9881 28.256C52.7108 28.8533 52.3108 29.3173 51.7881 29.648C51.2761 29.9787 50.6735 30.144 49.9801 30.144C49.3828 30.144 48.8495 30.0107 48.3801 29.744C47.9108 29.4773 47.5641 29.1093 47.3401 28.64V32.88H46.0441ZM49.7081 29.104C50.4335 29.104 51.0148 28.848 51.4521 28.336C51.8895 27.8133 52.1081 27.072 52.1081 26.112C52.1081 25.1413 51.8895 24.4 51.4521 23.888C51.0148 23.376 50.4335 23.12 49.7081 23.12C48.9828 23.12 48.4015 23.376 47.9641 23.888C47.5268 24.4 47.3081 25.1413 47.3081 26.112C47.3081 27.072 47.5268 27.8133 47.9641 28.336C48.4015 28.848 48.9828 29.104 49.7081 29.104ZM55.3723 30V22.224H56.6363V23.616C57.0523 22.6773 57.9056 22.16 59.1963 22.064L59.6603 22.016L59.7563 23.136L58.9403 23.232C58.2043 23.296 57.6443 23.5307 57.2603 23.936C56.8763 24.3307 56.6843 24.8747 56.6843 25.568V30H55.3723ZM64.2449 30.144C63.4875 30.144 62.8315 29.9787 62.2769 29.648C61.7222 29.3173 61.2902 28.8533 60.9809 28.256C60.6822 27.648 60.5329 26.9333 60.5329 26.112C60.5329 25.2907 60.6822 24.5813 60.9809 23.984C61.2902 23.376 61.7222 22.9067 62.2769 22.576C62.8315 22.2453 63.4875 22.08 64.2449 22.08C64.9915 22.08 65.6422 22.2453 66.1969 22.576C66.7622 22.9067 67.1942 23.376 67.4929 23.984C67.8022 24.5813 67.9569 25.2907 67.9569 26.112C67.9569 26.9333 67.8022 27.648 67.4929 28.256C67.1942 28.8533 66.7622 29.3173 66.1969 29.648C65.6422 29.9787 64.9915 30.144 64.2449 30.144ZM64.2449 29.104C64.9702 29.104 65.5515 28.848 65.9889 28.336C66.4262 27.8133 66.6449 27.072 66.6449 26.112C66.6449 25.1413 66.4262 24.4 65.9889 23.888C65.5515 23.376 64.9702 23.12 64.2449 23.12C63.5089 23.12 62.9222 23.376 62.4849 23.888C62.0582 24.4 61.8449 25.1413 61.8449 26.112C61.8449 27.072 62.0582 27.8133 62.4849 28.336C62.9222 28.848 63.5089 29.104 64.2449 29.104ZM72.8635 30.144C72.1702 30.144 71.5622 29.9787 71.0395 29.648C70.5275 29.3173 70.1275 28.8533 69.8395 28.256C69.5622 27.648 69.4235 26.9333 69.4235 26.112C69.4235 25.28 69.5622 24.5653 69.8395 23.968C70.1275 23.36 70.5275 22.896 71.0395 22.576C71.5622 22.2453 72.1702 22.08 72.8635 22.08C73.4715 22.08 74.0048 22.2133 74.4635 22.48C74.9328 22.7467 75.2795 23.1147 75.5035 23.584V18.72H76.7995V30H75.5355V28.576C75.3115 29.0667 74.9648 29.4507 74.4955 29.728C74.0262 30.0053 73.4822 30.144 72.8635 30.144ZM73.1355 29.104C73.8608 29.104 74.4422 28.848 74.8795 28.336C75.3168 27.8133 75.5355 27.072 75.5355 26.112C75.5355 25.1413 75.3168 24.4 74.8795 23.888C74.4422 23.376 73.8608 23.12 73.1355 23.12C72.3995 23.12 71.8128 23.376 71.3755 23.888C70.9488 24.4 70.7355 25.1413 70.7355 26.112C70.7355 27.072 70.9488 27.8133 71.3755 28.336C71.8128 28.848 72.3995 29.104 73.1355 29.104ZM81.9836 30.144C80.117 30.144 79.1836 29.1147 79.1836 27.056V22.224H80.4796V27.04C80.4796 27.7333 80.6183 28.2453 80.8956 28.576C81.1836 28.9067 81.6316 29.072 82.2396 29.072C82.901 29.072 83.4396 28.8533 83.8556 28.416C84.2716 27.968 84.4796 27.376 84.4796 26.64V22.224H85.7756V30H84.5116V28.688C84.2663 29.1573 83.9196 29.52 83.4716 29.776C83.0343 30.0213 82.5383 30.144 81.9836 30.144ZM91.4964 30.144C90.7177 30.144 90.0457 29.9787 89.4804 29.648C88.915 29.3067 88.4777 28.832 88.1684 28.224C87.8697 27.6053 87.7204 26.8853 87.7204 26.064C87.7204 24.8267 88.0564 23.856 88.7284 23.152C89.4004 22.4373 90.323 22.08 91.4964 22.08C91.9764 22.08 92.451 22.1653 92.9204 22.336C93.3897 22.5067 93.779 22.7467 94.0884 23.056L93.6404 24C93.331 23.7013 92.9897 23.4827 92.6164 23.344C92.2537 23.2053 91.907 23.136 91.5764 23.136C90.7657 23.136 90.1417 23.392 89.7044 23.904C89.267 24.4053 89.0484 25.1307 89.0484 26.08C89.0484 27.008 89.267 27.744 89.7044 28.288C90.1417 28.8213 90.7657 29.088 91.5764 29.088C91.907 29.088 92.2537 29.0187 92.6164 28.88C92.9897 28.7413 93.331 28.5173 93.6404 28.208L94.0884 29.152C93.779 29.4613 93.3844 29.7067 92.9044 29.888C92.435 30.0587 91.9657 30.144 91.4964 30.144ZM98.7266 30.144C97.8093 30.144 97.1213 29.904 96.6626 29.424C96.204 28.9333 95.9746 28.2293 95.9746 27.312V23.232H94.4546V22.224H95.9746V19.84H97.2706V22.224H99.7346V23.232H97.2706V27.184C97.2706 27.792 97.3986 28.256 97.6546 28.576C97.9106 28.8853 98.3266 29.04 98.9026 29.04C99.0733 29.04 99.244 29.0187 99.4146 28.976C99.5853 28.9333 99.74 28.8907 99.8786 28.848L100.103 29.84C99.964 29.9147 99.7613 29.984 99.4946 30.048C99.228 30.112 98.972 30.144 98.7266 30.144ZM108.062 30.144C106.195 30.144 105.262 29.1147 105.262 27.056V22.224H106.558V27.04C106.558 27.7333 106.696 28.2453 106.974 28.576C107.262 28.9067 107.71 29.072 108.318 29.072C108.979 29.072 109.518 28.8533 109.934 28.416C110.35 27.968 110.558 27.376 110.558 26.64V22.224H111.854V30H110.59V28.688C110.344 29.1573 109.998 29.52 109.55 29.776C109.112 30.0213 108.616 30.144 108.062 30.144ZM114.279 32.88V22.224H115.543V23.616C115.777 23.136 116.124 22.7627 116.583 22.496C117.052 22.2187 117.596 22.08 118.215 22.08C118.908 22.08 119.511 22.2453 120.023 22.576C120.545 22.896 120.945 23.36 121.223 23.968C121.511 24.5653 121.655 25.28 121.655 26.112C121.655 26.9333 121.511 27.648 121.223 28.256C120.945 28.8533 120.545 29.3173 120.023 29.648C119.511 29.9787 118.908 30.144 118.215 30.144C117.617 30.144 117.084 30.0107 116.615 29.744C116.145 29.4773 115.799 29.1093 115.575 28.64V32.88H114.279ZM117.943 29.104C118.668 29.104 119.249 28.848 119.687 28.336C120.124 27.8133 120.343 27.072 120.343 26.112C120.343 25.1413 120.124 24.4 119.687 23.888C119.249 23.376 118.668 23.12 117.943 23.12C117.217 23.12 116.636 23.376 116.199 23.888C115.761 24.4 115.543 25.1413 115.543 26.112C115.543 27.072 115.761 27.8133 116.199 28.336C116.636 28.848 117.217 29.104 117.943 29.104ZM126.567 30.144C125.873 30.144 125.265 29.9787 124.743 29.648C124.231 29.3173 123.831 28.8533 123.543 28.256C123.265 27.648 123.127 26.9333 123.127 26.112C123.127 25.28 123.265 24.5653 123.543 23.968C123.831 23.36 124.231 22.896 124.743 22.576C125.265 22.2453 125.873 22.08 126.567 22.08C127.175 22.08 127.708 22.2133 128.167 22.48C128.636 22.7467 128.983 23.1147 129.207 23.584V18.72H130.503V30H129.239V28.576C129.015 29.0667 128.668 29.4507 128.199 29.728C127.729 30.0053 127.185 30.144 126.567 30.144ZM126.839 29.104C127.564 29.104 128.145 28.848 128.583 28.336C129.02 27.8133 129.239 27.072 129.239 26.112C129.239 25.1413 129.02 24.4 128.583 23.888C128.145 23.376 127.564 23.12 126.839 23.12C126.103 23.12 125.516 23.376 125.079 23.888C124.652 24.4 124.439 25.1413 124.439 26.112C124.439 27.072 124.652 27.8133 125.079 28.336C125.516 28.848 126.103 29.104 126.839 29.104ZM135.383 30.144C134.849 30.144 134.369 30.0427 133.943 29.84C133.527 29.6267 133.196 29.3387 132.951 28.976C132.705 28.6133 132.583 28.208 132.583 27.76C132.583 27.1947 132.727 26.7467 133.015 26.416C133.313 26.0853 133.799 25.8507 134.471 25.712C135.153 25.5627 136.081 25.488 137.255 25.488H137.767V24.992C137.767 24.3307 137.628 23.856 137.351 23.568C137.084 23.2693 136.652 23.12 136.055 23.12C135.585 23.12 135.132 23.1893 134.695 23.328C134.257 23.456 133.809 23.6693 133.351 23.968L132.903 23.024C133.308 22.736 133.799 22.5067 134.375 22.336C134.961 22.1653 135.521 22.08 136.055 22.08C137.057 22.08 137.799 22.3253 138.279 22.816C138.769 23.3067 139.015 24.0693 139.015 25.104V30H137.799V28.656C137.596 29.1147 137.281 29.4773 136.855 29.744C136.439 30.0107 135.948 30.144 135.383 30.144ZM135.591 29.168C136.231 29.168 136.753 28.9493 137.159 28.512C137.564 28.064 137.767 27.4987 137.767 26.816V26.336H137.271C136.407 26.336 135.724 26.3787 135.223 26.464C134.732 26.5387 134.385 26.6773 134.183 26.88C133.991 27.072 133.895 27.3387 133.895 27.68C133.895 28.1173 134.044 28.4747 134.343 28.752C134.652 29.0293 135.068 29.168 135.591 29.168ZM144.539 30.144C143.622 30.144 142.934 29.904 142.475 29.424C142.016 28.9333 141.787 28.2293 141.787 27.312V23.232H140.267V22.224H141.787V19.84H143.083V22.224H145.547V23.232H143.083V27.184C143.083 27.792 143.211 28.256 143.467 28.576C143.723 28.8853 144.139 29.04 144.715 29.04C144.886 29.04 145.056 29.0187 145.227 28.976C145.398 28.9333 145.552 28.8907 145.691 28.848L145.915 29.84C145.776 29.9147 145.574 29.984 145.307 30.048C145.04 30.112 144.784 30.144 144.539 30.144ZM150.439 30.144C149.212 30.144 148.241 29.7867 147.527 29.072C146.812 28.3467 146.455 27.3653 146.455 26.128C146.455 25.328 146.615 24.624 146.935 24.016C147.255 23.3973 147.692 22.9227 148.247 22.592C148.812 22.2507 149.463 22.08 150.199 22.08C151.255 22.08 152.081 22.4213 152.679 23.104C153.276 23.776 153.575 24.704 153.575 25.888V26.384H147.719C147.761 27.2693 148.017 27.9467 148.487 28.416C148.956 28.8747 149.607 29.104 150.439 29.104C150.908 29.104 151.356 29.0347 151.783 28.896C152.209 28.7467 152.615 28.5067 152.999 28.176L153.447 29.088C153.095 29.4187 152.647 29.68 152.103 29.872C151.559 30.0533 151.004 30.144 150.439 30.144ZM150.231 23.04C149.495 23.04 148.913 23.2693 148.487 23.728C148.06 24.1867 147.809 24.7893 147.735 25.536H152.455C152.423 24.7467 152.215 24.1333 151.831 23.696C151.457 23.2587 150.924 23.04 150.231 23.04ZM158.074 30.144C157.466 30.144 156.89 30.0587 156.346 29.888C155.802 29.7173 155.354 29.4773 155.002 29.168L155.418 28.256C155.802 28.5653 156.224 28.7947 156.682 28.944C157.152 29.0827 157.626 29.152 158.106 29.152C158.714 29.152 159.173 29.04 159.482 28.816C159.792 28.592 159.946 28.288 159.946 27.904C159.946 27.6053 159.845 27.3707 159.642 27.2C159.44 27.0187 159.12 26.88 158.682 26.784L157.226 26.464C155.904 26.176 155.242 25.4933 155.242 24.416C155.242 23.712 155.52 23.1467 156.074 22.72C156.64 22.2933 157.376 22.08 158.282 22.08C158.816 22.08 159.322 22.1653 159.802 22.336C160.293 22.496 160.698 22.736 161.018 23.056L160.586 23.968C160.277 23.68 159.914 23.4613 159.498 23.312C159.093 23.152 158.688 23.072 158.282 23.072C157.685 23.072 157.232 23.1893 156.922 23.424C156.613 23.6587 156.458 23.968 156.458 24.352C156.458 24.9493 156.853 25.3333 157.642 25.504L159.098 25.808C159.781 25.9573 160.298 26.1973 160.65 26.528C161.002 26.848 161.178 27.2853 161.178 27.84C161.178 28.5547 160.896 29.12 160.33 29.536C159.765 29.9413 159.013 30.144 158.074 30.144Z" fill="#474747"/>
</svg>

<svg xmlns="http://www.w3.org/2000/svg" width="332" height="50" fill="none"><rect width="332" height="50" fill="#fff" rx="6"/><path fill="#FFCC29" d="M282 0h44a6 6 0 0 1 6 6v38a6 6 0 0 1-6 6h-44z"/><path stroke="#D6D6D6" d="M282 0h44a6 6 0 0 1 6 6v38a6 6 0 0 1-6 6h-44z"/><path fill="#000" fill-rule="evenodd" d="m309.233 32 5.657-5.571a1.3 1.3 0 0 0 0-1.857L309.233 19l-1.885 1.858 3.38 3.329H300v2.626h10.728l-3.38 3.33z" clip-rule="evenodd"/><path fill="#474747" d="M21.544 30.144q-2.72 0-4.144-1.536t-1.424-4.24q0-1.792.64-3.088a4.64 4.64 0 0 1 1.84-2q1.2-.704 2.896-.704 1.2 0 2.208.368a4.6 4.6 0 0 1 1.712 1.04l-.512 1.056q-.768-.672-1.584-.976t-1.84-.304q-1.92 0-2.944 1.216-1.024 1.2-1.024 3.392 0 2.24 1.056 3.424 1.056 1.185 3.152 1.184 1.36 0 2.608-.464v-3.344H21.32v-1.04h4v5.216q-.448.24-1.088.416a10 10 0 0 1-1.328.272q-.705.112-1.36.112m9.785 0q-1.84 0-2.912-1.072-1.071-1.088-1.072-2.944 0-1.2.48-2.112.48-.928 1.312-1.424.849-.512 1.952-.512 1.584 0 2.48 1.024.897 1.008.896 2.784v.496H28.61q.064 1.328.768 2.032.705.688 1.952.688.705 0 1.344-.208.64-.225 1.216-.72l.448.912q-.528.495-1.344.784a5.2 5.2 0 0 1-1.664.272m-.208-7.104q-1.104 0-1.744.688t-.752 1.808h4.72q-.048-1.185-.624-1.84-.56-.656-1.6-.656m8.34 7.104q-1.375 0-2.064-.72-.688-.736-.688-2.112v-4.08h-1.52v-1.008h1.52V19.84h1.296v2.384h2.464v1.008h-2.464v3.952q0 .912.384 1.392.384.465 1.248.464.255 0 .512-.064.255-.064.464-.128l.224.992a2.6 2.6 0 0 1-.608.208 3.3 3.3 0 0 1-.768.096m6.583 2.736V22.224h1.264v1.392q.352-.72 1.04-1.12.705-.416 1.632-.416 1.04 0 1.808.496.785.48 1.2 1.392.432.896.432 2.144 0 1.232-.432 2.144a3.2 3.2 0 0 1-1.2 1.392q-.767.495-1.808.496-.895 0-1.6-.4a2.48 2.48 0 0 1-1.04-1.104v4.24zm3.664-3.776q1.089 0 1.744-.768.656-.784.656-2.224 0-1.455-.656-2.224-.655-.768-1.744-.768-1.087 0-1.744.768-.656.768-.656 2.224 0 1.44.656 2.224.657.768 1.744.768m5.664.896v-7.776h1.264v1.392q.624-1.408 2.56-1.552l.464-.048.096 1.12-.816.096q-1.104.096-1.68.704-.576.593-.576 1.632V30zm8.873.144q-1.137 0-1.968-.496a3.4 3.4 0 0 1-1.296-1.392q-.448-.912-.448-2.144 0-1.231.448-2.128a3.4 3.4 0 0 1 1.296-1.408q.831-.495 1.968-.496 1.12 0 1.952.496.847.495 1.296 1.408.464.896.464 2.128t-.464 2.144a3.27 3.27 0 0 1-1.296 1.392q-.833.495-1.952.496m0-1.04q1.087 0 1.744-.768.656-.784.656-2.224 0-1.455-.656-2.224-.656-.768-1.744-.768-1.104 0-1.76.768-.64.768-.64 2.224 0 1.44.64 2.224.656.768 1.76.768m8.618 1.04q-1.039 0-1.823-.496-.77-.496-1.2-1.392-.416-.912-.416-2.144 0-1.248.415-2.144.433-.912 1.2-1.392.784-.495 1.825-.496.911 0 1.6.4.704.4 1.04 1.104V18.72h1.295V30h-1.264v-1.424a2.53 2.53 0 0 1-1.04 1.152q-.703.416-1.632.416m.272-1.04q1.089 0 1.744-.768.656-.784.656-2.224 0-1.455-.656-2.224-.655-.768-1.744-.768-1.103 0-1.76.768-.64.768-.64 2.224 0 1.44.64 2.224.657.768 1.76.768m8.849 1.04q-2.8 0-2.8-3.088v-4.832h1.296v4.816q0 1.04.416 1.536.432.495 1.344.496.992 0 1.616-.656.624-.672.624-1.776v-4.416h1.296V30h-1.264v-1.312q-.368.704-1.04 1.088a3 3 0 0 1-1.488.368m9.512 0q-1.167 0-2.016-.496a3.46 3.46 0 0 1-1.312-1.424q-.448-.929-.448-2.16 0-1.856 1.008-2.912 1.008-1.072 2.768-1.072.72 0 1.424.256.705.255 1.168.72L93.64 24a2.9 2.9 0 0 0-1.024-.656 2.9 2.9 0 0 0-1.04-.208q-1.215 0-1.872.768-.656.752-.656 2.176 0 1.392.656 2.208.657.8 1.872.8.497 0 1.04-.208a2.85 2.85 0 0 0 1.024-.672l.448.944q-.464.465-1.184.736-.703.255-1.408.256m7.23 0q-1.376 0-2.063-.72-.688-.736-.688-2.112v-4.08h-1.52v-1.008h1.52V19.84h1.296v2.384h2.464v1.008H97.27v3.952q0 .912.384 1.392.384.465 1.248.464.255 0 .512-.064.255-.064.464-.128l.224.992a2.6 2.6 0 0 1-.608.208 3.3 3.3 0 0 1-.768.096m9.336 0q-2.8 0-2.8-3.088v-4.832h1.296v4.816q0 1.04.416 1.536.432.495 1.344.496.992 0 1.616-.656.624-.672.624-1.776v-4.416h1.296V30h-1.264v-1.312q-.368.704-1.04 1.088a3 3 0 0 1-1.488.368m6.217 2.736V22.224h1.264v1.392a2.57 2.57 0 0 1 1.04-1.12q.703-.416 1.632-.416 1.04 0 1.808.496.783.48 1.2 1.392.432.896.432 2.144 0 1.232-.432 2.144a3.2 3.2 0 0 1-1.2 1.392q-.768.495-1.808.496-.897 0-1.6-.4a2.47 2.47 0 0 1-1.04-1.104v4.24zm3.664-3.776q1.087 0 1.744-.768.656-.784.656-2.224 0-1.455-.656-2.224-.657-.768-1.744-.768-1.089 0-1.744.768-.657.768-.656 2.224 0 1.44.656 2.224.655.768 1.744.768m8.624 1.04q-1.041 0-1.824-.496-.768-.496-1.2-1.392-.416-.912-.416-2.144 0-1.248.416-2.144.432-.912 1.2-1.392.783-.495 1.824-.496.912 0 1.6.4.704.4 1.04 1.104V18.72h1.296V30h-1.264v-1.424q-.336.736-1.04 1.152-.705.416-1.632.416m.272-1.04q1.087 0 1.744-.768.656-.784.656-2.224 0-1.455-.656-2.224-.657-.768-1.744-.768-1.104 0-1.76.768-.64.768-.64 2.224 0 1.44.64 2.224.656.768 1.76.768m8.544 1.04a3.3 3.3 0 0 1-1.44-.304 2.6 2.6 0 0 1-.992-.864 2.1 2.1 0 0 1-.368-1.216q0-.848.432-1.344.447-.495 1.456-.704 1.023-.224 2.784-.224h.512v-.496q0-.992-.416-1.424-.4-.448-1.296-.448-.705 0-1.36.208a5.1 5.1 0 0 0-1.344.64l-.448-.944q.608-.432 1.472-.688a6 6 0 0 1 1.68-.256q1.504 0 2.224.736.736.735.736 2.288V30h-1.216v-1.344a2.4 2.4 0 0 1-.944 1.088q-.624.4-1.472.4m.208-.976q.96 0 1.568-.656.608-.672.608-1.696v-.48h-.496q-1.296 0-2.048.128-.737.112-1.04.416-.288.288-.288.8 0 .656.448 1.072.463.416 1.248.416m8.948.976q-1.375 0-2.064-.72-.688-.736-.688-2.112v-4.08h-1.52v-1.008h1.52V19.84h1.296v2.384h2.464v1.008h-2.464v3.952q0 .912.384 1.392.384.465 1.248.464.256 0 .512-.064t.464-.128l.224.992a2.6 2.6 0 0 1-.608.208 3.3 3.3 0 0 1-.768.096m5.9 0q-1.84 0-2.912-1.072-1.072-1.088-1.072-2.944 0-1.2.48-2.112.48-.928 1.312-1.424.848-.512 1.952-.512 1.584 0 2.48 1.024.896 1.008.896 2.784v.496h-5.856q.063 1.328.768 2.032.704.688 1.952.688.703 0 1.344-.208a3.8 3.8 0 0 0 1.216-.72l.448.912q-.528.495-1.344.784a5.2 5.2 0 0 1-1.664.272m-.208-7.104q-1.105 0-1.744.688-.64.688-.752 1.808h4.72q-.048-1.185-.624-1.84-.56-.656-1.6-.656m7.843 7.104a5.7 5.7 0 0 1-1.728-.256q-.816-.255-1.344-.72l.416-.912q.576.465 1.264.688.704.208 1.424.208.912 0 1.376-.336t.464-.912q0-.448-.304-.704-.303-.272-.96-.416l-1.456-.32q-1.983-.431-1.984-2.048 0-1.056.832-1.696.849-.64 2.208-.64a4.5 4.5 0 0 1 1.52.256 3 3 0 0 1 1.216.72l-.432.912a3.1 3.1 0 0 0-1.088-.656q-.607-.24-1.216-.24-.895 0-1.36.352a1.11 1.11 0 0 0-.464.928q0 .896 1.184 1.152l1.456.304q1.024.225 1.552.72.528.48.528 1.312 0 1.072-.848 1.696-.847.608-2.256.608"/></svg>
